swiss/communes/0051.svg

<?xml version="1.0" encoding="UTF-8" standalone="no"?>
<!-- Created with Inkscape (http://www.inkscape.org/) -->
<svg
   xmlns:svg="http://www.w3.org/2000/svg"
   xmlns="http://www.w3.org/2000/svg"
   version="1.0"
   width="218.55435"
   height="256.00241"
   id="svg2780">
  <defs
     id="defs2782" />
  <g
     transform="translate(-16.716535,-800.8029)"
     id="layer1">
    <path
       d="M 17.716535,801.80291 L 21.653882,967.19978 C 24.466266,1085.3405 227.52114,1085.3405 230.33354,967.19978 L 234.27088,801.80291 L 17.716535,801.80291 z"
       id="path3282"
       style="fill:#c42d24;fill-opacity:1;fill-rule:evenodd;stroke:#000000;stroke-width:2;stroke-linecap:butt;stroke-miterlimit:4;stroke-dashoffset:0;stroke-opacity:1" />
    <path
       d="M 88.588213,860.68127 C 80.529486,868.05294 81.352633,871.01671 88.59375,877.58069 C 97.709768,885.84424 112.54906,894.83959 123.25,900.70569 L 118.78125,910.83069 C 116.08103,914.5756 113.93833,918.53339 113.78125,920.89319 C 94.725635,909.82161 75.207057,896.23284 64.53125,881.86194 C 57.924606,872.96862 61.726633,859.92025 67.185207,853.27515 C 99.078776,814.44891 153.07032,820.87843 180.0361,848.34478 C 193.89151,862.45739 194.25849,878.57713 176.26007,892.91336 C 165.04706,901.84483 148.38568,912.82957 138.06882,921.52302 C 137.20026,922.25491 135.95282,923.73754 135.95282,924.87335 L 135.95282,1016.9291 C 135.95282,1018.0359 135.53755,1019.9311 135.06229,1020.7985 L 126.07817,1037.1975 C 125.77658,1037.748 124.31895,1037.7472 124.01575,1037.1975 L 114.96918,1020.7985 C 114.50856,1019.9636 113.73485,1018.2216 113.73485,1016.9291 L 113.73485,921.17035 C 113.73485,917.03727 120.78869,907.19126 125.62221,903.11134 C 135.43071,894.83209 155.85487,883.48344 165.34881,875.70667 C 170.6615,871.35488 167.74768,864.72865 159.44882,858.3531 C 142.57246,845.38794 109.43946,841.60771 88.588213,860.68127 z"
       id="path5754"
       style="fill:#ffffff;fill-opacity:1;fill-rule:evenodd;stroke:#000000;stroke-width:0.99921262;stroke-linecap:butt;stroke-linejoin:round;stroke-miterlimit:4;stroke-dasharray:none;stroke-opacity:1" />
  </g>
</svg>

<svg xmlns="http://www.w3.org/2000/svg" version="1.0" width="218.554" height="256.002"><path d="M17.717 801.803 21.654 967.2c2.812 118.14 205.867 118.14 208.68 0l3.937-165.397H17.717z" style="fill:#c42d24;fill-opacity:1;fill-rule:evenodd;stroke:#000;stroke-width:2;stroke-linecap:butt;stroke-miterlimit:4;stroke-dashoffset:0;stroke-opacity:1" transform="translate(-16.717 -800.803)"/><path d="M88.588 860.681c-8.059 7.372-7.235 10.336.006 16.9 9.116 8.263 23.955 17.259 34.656 23.125l-4.469 10.125c-2.7 3.745-4.843 7.702-5 10.062-19.055-11.071-38.574-24.66-49.25-39.031-6.606-8.893-2.804-21.942 2.654-28.587 31.894-38.826 85.885-32.397 112.851-4.93 13.856 14.112 14.222 30.232-3.776 44.568-11.213 8.932-27.874 19.917-38.191 28.61-.869.732-2.116 2.215-2.116 3.35v92.056c0 1.107-.415 3.002-.89 3.87l-8.985 16.399c-.301.55-1.76.55-2.062 0l-9.047-16.4c-.46-.834-1.234-2.576-1.234-3.869V921.17c0-4.133 7.054-13.979 11.887-18.059 9.809-8.279 30.233-19.628 39.727-27.404 5.313-4.352 2.399-10.978-5.9-17.354-16.877-12.965-50.01-16.745-70.86 2.328z" style="fill:#fff;fill-opacity:1;fill-rule:evenodd;stroke:#000;stroke-width:.99921262;stroke-linecap:butt;stroke-linejoin:round;stroke-miterlimit:4;stroke-dasharray:none;stroke-opacity:1" transform="translate(-16.717 -800.803)"/></svg>
